X:22
I:linebreak $
T:La Volta
C:William Byrd (c. 1540 - 1623)
N:arr. Robert Smith
M:6/4
L:1/8
K:C major
"G"B2A2G2 B6 | "G"B2"D"A2"Em"G2 "D"d6 | "G"B2"D"A2"Em"G2 "D"d3cB2 | "C"c2"D"A4 "G"G6 | "G"B2A2G2 B6 | "G"B2"D"A2"Em"G2 "D"d6 | 
"G"B2"D"A2"Em"G2 "D"d3cB2 | "C"c2"D"A4 "G"G6 | "G"G2B2c2 "G"d2cd"C"e2 | "C"c2Bc"D"d2 "G"B3AG2 | "G"G2B2c2 d3cB2 | "C"c2"D"A4 "G"G6 | 
"G"G3ABc "G"d2cd"C"e2 | "C"c2Bc"D"d2 "G"B2ABG2 | "G"D2GABc d3cB2 | "C"c2"D"A4 "G"G6 | "G"B2ABG2 B6 | "G"B2"D"AB"Em"G2 "D"d6 | 
"G"B2AB"Em"G2 "D"d3c"Em"BA | "C"cB"D"AGA2 "G"G6 | "G"B2ABGA BcB4 | "G"B2GA"Em"Bc "D"ded4 | "G"BGAB"Em"AG "D"^FEDd"Em"cB | "Am"AG"D"A4 "G"G2GABA | 
"G"G3ABc "G"dBcd"C"e2 | "A"^cABc"D"d2 "G"BGABG2 | "G"D2GABc "G"dBcd"C"cA | "C"cB"D"A4 "G"G6 | "G"B4c2 d4e2 | "Am"c4"D"d2 "G"B2ABGA | 
"G"Bcd4 "D"A4"G"B2 | "C"c2"Am D"A4 "G"G6 | "G"G12 |] 

